X:1
T: Peter Forbes
C:
R:Jig
Q:180
K:D
M:6/8
L:1/16
A2|d2e2d2 d2c2B2|A2B2A2 A2G2F2|E2F2G2 G2F2E2|D2F2A2 A2B2c2|d2e2d2 d2c2B2|A2B2A2 A2G2F2|E2F2G2 A2B2c2|d6 d4A2|
d2e2d2 d2c2B2|A2B2A2 A2G2F2|E2F2G2 G2F2E2|D2F2A2 A2B2c2|d2e2d2 d2c2B2|A2B2A2 A2G2F2|E2F2G2 A2B2c2|d6 d2F2G2|
A2B2A2 A2G2F2|G2A2G2 G2F2E2|F2D2F2 A2G2F2|E6 E2F2G2|A2B2A2 A2G2F2|G2A2B2 d2c2B2|A2G2F2 G2F2E2|D6 D2F2G2|
A2B2A2 A2G2F2|G2A2G2 G2F2E2|F2D2F2 A2G2F2|E6 E2F2G2|A2B2A2 A2G2F2|G2A2B2 d2c2B2|c2B2A2 B2A2^G2|A2e2c2 A2F2G2|
A2B2A2 A2G2F2|G2A2G2 G2F2E2|F2D2F2 A2G2F2|E2F2G2 A2B2c2|d2e2d2 d2c2B2|A2B2A2 A2G2F2|E2F2G2 A2B2c2|d6d4||
